!!!Rep U0723
!!!Isim(Name): Şu Dünyada Üç Nesneden Korkarım
!!!Yore(Region): Adana
!!!Makam: Hüseyni
!!!Donanim(Key Signature): b-2
!!!Usul: Serbest
**kern	**Dcent
*staff1	*.
=1-	=1-
*clefG2	*.
*k[b-]	*.
*MX/X	*.
8gQ	0
4ccQ	0
4ccQ	0
4.ccQ	0
16bQ	0
16ddQ	0
4.ccQ	0
=1	=1
4ddQ	0
4eeQ	0
[4eeQ	0
4.eeQ]	0
8eeQ	0
8.ddQ	0
eeq	0
!!linebreak:default
8ccQ	0
eeq	0
4.ddQ	0
=2	=2
4ddQ	0
8ddQ	0
eeq	0
ddq	0
8eeQ	0
ccq	0
8ddQ	0
b-q	0
4dd-Q	0
4.ccQ;	0
=3	=3
8eeQ	0
4eeQ	0
[4eeQ	0
4.eeQ]	0
!!linebreak:default
8eeQ	0
8ddQ	0
eeq	0
8ccQ	0
eeq	0
4.ddQ	0
=4	=4
16ddQ	0
16ccQ	0
8ddQ	0
16ccQ	0
16b-Q	50
8ccQ	0
4rQ	.
=5	=5
16.ccQ	0
32b-Q	50
16ccQ	0
16ddQ	0
4b-Q	50
8aQ	0
!!linebreak:default
4.aQ	0
2aQ	0
=6	=6
16ccQ	0
16b-Q	50
8ccQ	0
16ccQ	0
16b-Q	50
[4ccQ	0
4ccQ]	0
=7	=7
4ddQ	0
4eeQ	0
[4eeQ	0
4.eeQ]	0
16.eeQ	0
ff#Q	50
8..ddQ	0
eeq	0
!!linebreak:default
16..ccQ	0
eeq	0
4.ddQ	0
=8	=8
4ddQ	0
8..ddQ	0
32eeQ	0
16.ddQ	0
64eeQ	0
8ccQ	0
16.b-Q	50
32ddQ	0
4.ccQ	0
=9	=9
8eeQ	0
4eeQ	0
[4eeQ	0
4.eeQ]	0
8eeQ	0
16..ddQ	0
64eeQ	0
!!linebreak:default
16..ccQ	0
64eeQ	0
4.ddQ	0
=10	=10
32ddQ	0
32ccQ	0
8ddQ	0
32ccQ	0
32b-Q	50
8ccQ	0
4rQ	.
=11	=11
16.ccQ	0
32b-Q	50
16ccQ	0
16ddQ	0
4b-Q	50
4b-Q	50
!!linebreak:default
8aQ	0
16ccQ	0
[4aQ	0
4aQ]	0
2aQ	0
=	=
*-	*-
!! Uzun Hava Humdrum Bilgi Bankasi (Uzun Hava Humdrum Database)
!! 
!! Sertan Senturk, Parag Chordia & Erdal Tugcular
!! Georgia Tech Center for Music Technology, 2011
